!!!COM: Music21
!!!OTL: Valse
!!!OMV: pezas_valses_valse-4_valse-partitura.musicxml
**kern
*part1
*staff1
*I"Bagpipes
*I'Bag
*clefG^2
*k[]
*M3/4
=1
!LO:TX:a:t=Presto
2.gg
=
4ee
4gg
4ccc
=
2.gg
=
4ee
4gg
4bb
=
2.ff
=
4dd
4ee
4ff
=
4gg
8ggL
8aaJ
8ggL
8ffJ
=
4ee
8eeL
8ddJ
8eeL
8ffJ
=
2.gg
!!linebreak:original
=
4ee
4gg
4ccc
=
2.gg
=
4ee
4gg
4bb
=
2.ff
=
4dd
4ee
4ff
=
[2.ee
=
2.ee]
=||
*M3/4
!LO:TX:a:t=Presto
2.gg
=
4ee
4gg
4ccc
=
2.gg
=
4ee
4gg
4bb
=
2.ff
!!linebreak:original
=
4dd
4ee
4ff
=
4gg
8ggL
8aaJ
8ggL
8ffJ
=
4ee
8eeL
8ddJ
8eeL
8ffJ
=
2.gg
=
4ee
4gg
4ccc
=
2.gg
=
4ee
4gg
4bb
=
2.ff
=
4dd
4ee
4ff
=
[2.ee
!!linebreak:original
=
4ee]
4ee
4ff
=||
4gg
8ggL
8ffJ
[4gg
=
4gg]
4ee
4ff
=
4gg
8ggL
8ffJ
[4gg
=
4gg]
4gg
4aa
=
4gg
8ffL
8eeJ
[4ff
=
4ff]
4ff
4gg
=
4ff
8eeL
8ddJ
[4ee
=
4ee]
4ee
4ff
!!linebreak:original
=
4gg
8ggL
8ffJ
[4gg
=
4gg]
4ee
4ff
=
4gg
8ggL
8ffJ
[4gg
=
4gg]
4gg
4aa
=
4gg
8ffL
8eeJ
[4ff
=
4ff]
4ff
4gg
=
[2.ee
=
4ee]
4ee
4ff
=||
4gg
8ggL
8ffJ
[4gg
=
4gg]
4ee
4ff
!!pagebreak:original
=
4gg
8ggL
8ffJ
[4gg
=
4gg]
4gg
4aa
=
4gg
8ffL
8eeJ
[4ff
=
4ff]
4ff
4gg
=
4ff
8eeL
8ddJ
[4ee
=
4ee]
4ee
4ff
=
4gg
8ggL
8ffJ
[4gg
=
4gg]
4ee
4ff
=
4gg
8ggL
8ffJ
[4gg
!!linebreak:original
=
4gg]
4gg
4aa
=
4gg
8ffL
8eeJ
[4ff
=
4ff]
4ff
4gg
=||
[2.ee
=
2.ee]
=||
*-
!!!system-decoration: s1,s2
